X: 1
T: Laoise Kelly's
M: 6/8
L: 1/8
R: jig
K: Amaj
cAF ~E3 |~A3 cde | deB BAB | gfe ^de=d |
cAF ~E3 |~A3 cde | dfb cea |1 BAG Aed :|2 BAG A2B ||
cee fee | aee edc | ~d3 ede | d2f fed |
cee fee | aee edc | ~d3 ceB |1 BAG A2B :|2 BAG Aed ||
